X:1
T:Hallel, 65.65 D
T:Hallel, 65.65 D
T:Myles B. Foster, 1891, arranged by F. F. B. 
T:Public Domain Courtesy of the Cyber Hymnal™
C:Myles B. Foster, 1891, arranged by F. F. B.
Z:Public Domain
Z:Courtesy of the Cyber Hymnal™
%%score ( 1 2 ) ( 3 4 )
L:1/8
Q:1/4=90
M:6/8
K:E
V:1 treble 
V:2 treble 
V:3 bass 
V:4 bass 
V:1
 [EB] | [EB][EG][Ec] [EB][EG]E | [EF]>[EG][DA] [EG]2 [EB] | [EB][EG][Ec] [EB][EG][Gc] | %4
 F>[DG][E^A] [DB]2 [DB] | [Cc][CA][CF] [B,B][B,G][B,E] | [EG][DF][CE] F2 [DB] | %7
 [Ee][EA][Ec] [EB][B,G][^B,E] | [CE]>C[B,D] [B,E]2 |] %9
V:2
 x | x5 E | x6 | x6 | F3/2 x9/2 | x6 | x3 (ED) x | x6 | x3/2 C/ x3 |] %9
V:3
 [E,G,] | [E,G,][E,B,][E,A,] [E,G,][E,B,][G,B,] | B,>B,[B,,B,] [E,B,]2 [E,G,] | %3
 [E,G,][E,B,]A, [G,B,][E,B,][C,E] | [F,D]>[F,B,]F, [B,,F,]2 [B,,F,] | %5
 [B,,^E,][B,,F,][B,,=E,] [B,,D,][B,,E,][B,,G,] | [C,B,][F,^A,][F,A,] [B,,B,]2 [=A,B,] | %7
 [G,B,][G,B,]A, [G,B,][G,,E,][G,,E,] | [F,,A,]>[F,,A,][B,,A,] (A,G,) |] %9
V:4
 x | x6 | B,>B, x4 | x2 A, x3 | x2 F, x3 | x6 | x6 | x2 A, x3 | x3 E,2 |] %9

